web/wp-content/themes/cncf-twenty-two/images/reports/kccnc-na-22/icon-colo.svg

<svg fill="none" height="23" viewBox="0 0 18 23" width="18" xmlns="http://www.w3.org/2000/svg"><g stroke="#1e1d40" stroke-linecap="round" stroke-linejoin="round" stroke-width="1.7"><path d="m17.1162 9.20703c0 5.99997-7.99999 11.99997-7.99999 11.99997s-8-6-8-11.99997c0-2.12173.84286-4.15656 2.34315-5.65685s3.53512-2.34315 5.65685-2.34315c2.12169 0 4.15659.84286 5.65689 2.34315s2.3431 3.53512 2.3431 5.65685z"/><path d="m9.11621 12.207c1.65689 0 2.99999-1.3431 2.99999-2.99997 0-1.65685-1.3431-3-2.99999-3-1.65685 0-3 1.34315-3 3 0 1.65687 1.34315 2.99997 3 2.99997z"/></g></svg>

<svg width="18" height="23" viewBox="0 0 18 23" fill="none" xmlns="http://www.w3.org/2000/svg">
<path d="M17.1162 9.20703C17.1162 15.207 9.11621 21.207 9.11621 21.207C9.11621 21.207 1.11621 15.207 1.11621 9.20703C1.11621 7.0853 1.95907 5.05047 3.45936 3.55018C4.95965 2.04989 6.99448 1.20703 9.11621 1.20703C11.2379 1.20703 13.2728 2.04989 14.7731 3.55018C16.2734 5.05047 17.1162 7.0853 17.1162 9.20703V9.20703Z" stroke="#1E1D40" stroke-width="1.7" stroke-linecap="round" stroke-linejoin="round"/>
<path d="M9.11621 12.207C10.7731 12.207 12.1162 10.8639 12.1162 9.20703C12.1162 7.55018 10.7731 6.20703 9.11621 6.20703C7.45936 6.20703 6.11621 7.55018 6.11621 9.20703C6.11621 10.8639 7.45936 12.207 9.11621 12.207Z" stroke="#1E1D40" stroke-width="1.7" stroke-linecap="round" stroke-linejoin="round"/>
</svg>
